X: 398
T: Sonata	 Op. 65
C: Fryderyk Chopin
%%abc-version 2.0
%%abcx-abcm2ps-target-version 5.9.1 (29 Sep 2008)
%%abc-creator hum2abc beta
%%abcx-conversion-date 2021/10/03 11:23:52
%%abc-edited-by Wojciech Jakubiak-Danek
%%abcx-initial-encoding-date 2020-04-27
%%humdrum-veritas 3933338002
%%humdrum-veritas-data 3042152226
%%linebreak <none>
%%barnumbers 0
L: 1/8
M: 3/4
N: Derived from 065-1-BH-002-violino.krn
P: Sonate pour Piano et Violoncelle
K: F clef=treble
A2 [I:setbarnb 1]| 
.A2AB BA | 
Ad^cd!accent!e2 | 
.f2AB BA | 
AFEDE2 | 
.A,2z2E2 | 
F2D4 | 
A2E4 | 
F2D4 | 
A6 | 
E4^c2 | 
^c6 | 
z6 | 
A z _BAcB | 
G z AGBA | 
F z GFAG | 
E z FEGF | 
D zz2z2 | 
z2z2[A2E2A,2] | 
[A2F2D2]z2z2 | 
z2z2E2 | 
c2ABBA | 
G2GAAG | 
F2FGGF | 
E2EFFE | 
D6 | 
c4B2 | 
_a6 | 
z6 | 
!accent!F6 | 
_B,2_E2D2 | 
^C6 | 
D6 | 
d2DEED | 
DG^FGA2 | 
B2D_EED | 
dBAG[B2D2G,2] | 
_E2z2z2 | 
z2z2_E2 | 
[c2_E2_A,2]z2z2 | 
z2z2^G2 | 
^A2^f2f2 | 
^f2^c4 | 
^d2^g2^f2 | 
^f2^c4 | 
^d6 | 
^f4^d'2 | 
^d'6 | 
z6 | 
=B z cBdc | 
A z =BAcB | 
G z AG=BA | 
^F z GFAG | 
E zz2z2 | 
[^G6=B,6] | 
[A6C6] | 
[=B6D6] | 
[c2_E2]A=BBA | 
DA^GAd2 | 
=G2GAAG | 
G,CEFG2 | 
_A2AB BA | 
_A2_E4 | 
F2_AB BA | 
_A2_E_GFE | 
F2_A,_B, B,A, | 
_A,4_A2 | 
_A,4_A2 | 
_A,2_A2A,B, | 
_C2[_A4=B,4] | 
[G2=C2][^F4=A,4] | 
[G2_B,2][E4^C4] | 
[F2D2][F4D4] | 
A,2[AEA,] z z [EA,] | 
F2D2[A2D2A,2] & A,4x2 | 
[^c2E2A,2][AEA,] z z [EA,] | 
F2D2[A2D2A,2] & A,4x2 | 
f6 | 
e4d2 | 
^c2=c2_B2 | 
E2F2D2 | 
A,2A,B, B,A, | 
Z3 | 
.A,2A,B, !accent!B,A, | 
Z3 | 
A2ABBA | 
Ad^cd!accent!e2 | 
f2ABBA | 
AFEDE2 | 
A,2z2E2 | 
F2D4 | 
A2E4 | 
F2D4 | 
A6 | 
E4^c2 | 
^c6 | 
z6 | 
A z _BAcB | 
G z AGBA | 
F z GFAG | 
E z FEGF | 
D zz2z2 | 
z2z2.[A2E2A,2] | 
.[A2F2D2]z2z2 | 
z2z2E2 | 
c2ABBA | 
G2GAAG | 
F2FGGF | 
E2EFFE | 
D6 | 
c4B2 | 
_a6 | 
z6 | 
!accent!F6 | 
_B,2_E2D2 | 
^C6 | 
^D6 | 
E6 | 
B,2E2^D2 | 
E6 | 
F6 | 
^F6 | 
=B,2^F2^E2 | 
^F6 | 
G6 | 
^G6 | 
A6 | 
^c'2=b2a2 | 
g2d2e2 ||  
 [K:D] f6 | 
^g6 | 
b2a2^g2 | 
b4a2 | 
e6 | 
f6 | 
a2g2f2 | 
a4g2 | 
B6 | 
c4B2 | 
A2B2c2 | 
d2e2f2 | 
e2c'2d'2 | 
c'2b2e2 | 
a2e2a2- | 
a2g2f2 | 
g6 | 
^a6 | 
c'2b2^a2 | 
c'4b2 | 
f6 | 
^g6 | 
b2a2^g2 | 
b4a2 | 
a6 | 
_b6 | 
=b6 | 
=c'6 | 
^c'4d'2- | 
d'2d2g2 | 
e6 | 
d2z2c2 ||  
c4f2 | 
f4^g2 | 
f2^e2c'2 | 
c'6- | 
c'4=e2- | 
e2^g2f2 | 
e2^d2b2 | 
b6- | 
b4=d2- | 
d2f2e2 | 
d2c2g2 | 
g6- | 
g2g2g2 | 
g4f2 | 
^d6 | 
e4^e2 | 
f6 | 
^g6 | 
b2a2^g2 | 
b4a2 | 
e6 | 
f6 | 
a2g2f2 | 
a4g2 | 
g6 | 
_a6 | 
=a6 | 
_b6 | 
=b2c'3d' | 
d4g2 |[1 
e6- | 
e2d2c2 :|][2 
e6 | 
f6 | 
g6 | 
^g6 | 
a2z2z2 | 
!trill!f6{/ef} | 
g6 | 
^g6 | 
a6 | 
_b6 | 
a6 | 
_b6- | 
b z ag_ba | 
g z =fegf | 
e z dced | 
c z _BA=cB ||  
 [K:F] A2AB BA | 
Ad^cde2 | 
f2AB BA | 
AFEDE2 | 
A,2z2E2 | 
F2D4 | 
A2E4 | 
F2D4 | 
A6 | 
E4^c2 | 
^c6 | 
z6 | 
A z BAcB | 
G z AGBA | 
F z GFAG | 
E z FEGF | 
D2z2z2 | 
z2z2[A2E2A,2] | 
[A2F2D2]z2z2 | 
z2z2E2 | 
c2ABBA | 
G2GAAG | 
F2FGGF | 
E2EFFE | 
D6 | 
c4B2 | 
_a6 | 
z6 | 
f6 | 
B2_e2d2 | 
^c6 | 
d6 | 
=c6 | 
^F2B2A2 | 
G6 | 
^C2F2E2 | 
_E6 | 
D6 | 
B,6 | 
G,6 | 
D2D_E ED | 
D2G4 | 
D2D_E ED | 
D2G4 | 
D2D_E ED | 
z2D_E ED | 
[d'2^f2A2D2]z2z2 |]
